X: 4
T:Anniseed Water Robin
M:6/8
L:1/8
Q:120
C:Playford
S:Manuscript
O:Playford
A:English
K:G
efg fga| d2 d d2 e| f>gf/2e/2| def/2e/2|dBB B3| efg fga| d2 d d2 e |f>gf/2e/2 def/2e/2|dBB B2||
|: A|GGG G>FE| ggg g>fe| f2 g a>gf/2g/2|e2 B e2 A|GGG G>FE| ggg g>fe | f2 g a>gf/2g/2|e2 B e3:|

